packages/Snappmarket/src/ListIcon/index.svg

<svg xmlns="http://www.w3.org/2000/svg" viewBox="0 0 32 32">
  <path d="M20.285 5.898H2.065a1.023 1.023 0 110-2.048h18.22a1.023 1.023 0 110 2.048zm0 10.805H2.065a1.023 1.023 0 110-2.048h18.22a1.023 1.023 0 110 2.048zm0 11.364H2.065a1.023 1.023 0 110-2.048h18.22a1.023 1.023 0 110 2.048zm6.82-19.647a3.546 3.546 0 113.546-3.546 3.55 3.55 0 01-3.545 3.546zm0-5.043a1.498 1.498 0 101.498 1.498 1.5 1.5 0 00-1.497-1.498zm0 15.987a3.546 3.546 0 113.546-3.546 3.55 3.55 0 01-3.545 3.546zm0-5.043a1.498 1.498 0 101.498 1.498 1.5 1.5 0 00-1.497-1.498zm0 16.271a3.546 3.546 0 113.546-3.546 3.55 3.55 0 01-3.545 3.546zm0-5.044a1.498 1.498 0 101.498 1.498 1.5 1.5 0 00-1.497-1.5z"/>
</svg>

<svg
  style="width:15px;height:15px"
  version="1.1"
  xmlns="http://www.w3.org/2000/svg"
  width="32"
  height="32"
  viewBox="0 0 32 32"
  id="ListIcon"
>
  <title>shopping-list</title>
  <path d="M20.285 5.898h-18.22c-0.566 0-1.024-0.458-1.024-1.024s0.458-1.024 1.024-1.024v0h18.22c0.566 0 1.024 0.458 1.024 1.024s-0.458 1.024-1.024 1.024v0zM20.285 16.703h-18.22c-0.566 0-1.024-0.458-1.024-1.024s0.458-1.024 1.024-1.024v0h18.22c0.566 0 1.024 0.458 1.024 1.024s-0.458 1.024-1.024 1.024v0zM20.285 28.067h-18.22c-0.566 0-1.024-0.458-1.024-1.024s0.458-1.024 1.024-1.024v0h18.22c0.566 0 1.024 0.458 1.024 1.024s-0.458 1.024-1.024 1.024v0zM27.105 8.42c-1.958 0-3.546-1.587-3.546-3.546s1.587-3.546 3.546-3.546c1.958 0 3.546 1.587 3.546 3.546v0c-0.002 1.957-1.588 3.543-3.545 3.546h-0zM27.105 3.377c-0.827 0-1.498 0.671-1.498 1.498s0.671 1.498 1.498 1.498c0.827 0 1.498-0.67 1.498-1.498v0c-0.001-0.827-0.671-1.496-1.497-1.498h-0zM27.105 19.364c-1.958 0-3.546-1.587-3.546-3.546s1.587-3.546 3.546-3.546c1.958 0 3.546 1.587 3.546 3.546v0c-0.002 1.957-1.588 3.543-3.545 3.546h-0zM27.105 14.321c-0.827 0-1.498 0.671-1.498 1.498s0.671 1.498 1.498 1.498c0.827 0 1.498-0.671 1.498-1.498v0c-0.001-0.827-0.671-1.496-1.497-1.498h-0zM27.105 30.592c-1.958 0-3.546-1.587-3.546-3.546s1.587-3.546 3.546-3.546c1.958 0 3.546 1.587 3.546 3.546v0c-0.002 1.957-1.588 3.543-3.545 3.546h-0zM27.105 25.548c-0.827 0-1.498 0.671-1.498 1.498s0.671 1.498 1.498 1.498c0.827 0 1.498-0.671 1.498-1.498v0c0 0 0 0 0 0 0-0.828-0.67-1.499-1.497-1.5h-0z"/>
</svg>
